Numix-GalliumOS/16/apps/goa-account-kerberos.svg

<?xml version="1.0" encoding="UTF-8" standalone="no"?>
<svg
   xmlns:dc="http://purl.org/dc/elements/1.1/"
   xmlns:cc="http://creativecommons.org/ns#"
   xmlns:rdf="http://www.w3.org/1999/02/22-rdf-syntax-ns#"
   xmlns:svg="http://www.w3.org/2000/svg"
   xmlns="http://www.w3.org/2000/svg"
   xmlns:sodipodi="http://sodipodi.sourceforge.net/DTD/sodipodi-0.dtd"
   xmlns:inkscape="http://www.inkscape.org/namespaces/inkscape"
   viewBox="0 0 16 16"
   id="svg2"
   version="1.1"
   inkscape:version="0.91 r"
   sodipodi:docname="goa-account-kerberos.svg"
   width="16"
   height="16">
  <metadata
     id="metadata10">
    <rdf:RDF>
      <cc:Work
         rdf:about="">
        <dc:format>image/svg+xml</dc:format>
        <dc:type
           rdf:resource="http://purl.org/dc/dcmitype/StillImage" />
        <dc:title />
      </cc:Work>
    </rdf:RDF>
  </metadata>
  <defs
     id="defs8" />
  <sodipodi:namedview
     pagecolor="#ffffff"
     bordercolor="#666666"
     borderopacity="1"
     objecttolerance="10"
     gridtolerance="10"
     guidetolerance="10"
     inkscape:pageopacity="0"
     inkscape:pageshadow="2"
     inkscape:window-width="1920"
     inkscape:window-height="1056"
     id="namedview6"
     showgrid="true"
     inkscape:zoom="11.313709"
     inkscape:cx="-5.790756"
     inkscape:cy="9.5521766"
     inkscape:window-x="0"
     inkscape:window-y="24"
     inkscape:window-maximized="1"
     inkscape:current-layer="svg2">
    <inkscape:grid
       type="xygrid"
       id="grid4138" />
  </sodipodi:namedview>
  <path
     d="M 4.5756084,13 C 5.1521197,10.003094 3.5984715,9.0046687 2.1401364,10.139958 L 1.4791368,9.7297303 2.6485425,8.4049931 2.6744449,7.773981 3.7933089,7.0598296 3.5125507,6.3443081 C 3.9922955,6.5542024 4.4365977,6.522846 4.6097241,7.0175849 5.6441417,7.1429699 6.6364414,8.216936 6.5901115,8.9310047 7.2347695,7.0597029 8.138368,6.060664 5.4438707,4.7141524 L 5.3594242,4 7.0466703,4.4306779 7.5809162,4.1472023 8.3782095,4.6405722 8.9533506,4.2098953 C 8.789807,4.6201239 9.1564239,4.7346007 8.8524958,5.0821582 9.7097656,5.7963107 9.4412633,8.0382087 9.5339437,8.9637511 9.7738056,8.2373215 10.333953,7.4277715 11.30711,7.2055362 c 0.07632,-0.441585 0.697894,-0.440217 1.053581,-0.7563961 l -0.115846,0.7046123 0.984003,0.6719088 0.01226,0.6419192 1.279755,1.4202169 -0.896777,0.4306777 C 11.497972,8.6775595 10.881997,10.835703 11.5224,13 Z"
     style="fill:#791918;stroke:none;stroke-width:0.12072"
     id="path4"
     inkscape:connector-curvature="0"
     sodipodi:nodetypes="cccccccccccccccccccccccccc" />
</svg>

<svg xmlns="http://www.w3.org/2000/svg" viewBox="0 0 16 16">
 <path d="m 4.576 13 c 0.577 -2.997 -0.977 -3.995 -2.435 -2.86 l -0.661 -0.41 1.169 -1.325 0.026 -0.631 1.119 -0.714 -0.281 -0.716 c 0.48 0.21 0.924 0.179 1.097 0.673 1.034 0.125 2.027 1.199 1.98 1.913 0.645 -1.871 1.548 -2.87 -1.146 -4.217 l -0.084 -0.714 1.687 0.431 0.534 -0.283 0.797 0.493 0.575 -0.431 c -0.164 0.41 0.203 0.525 -0.101 0.872 0.857 0.714 0.589 2.956 0.681 3.882 0.24 -0.726 0.8 -1.536 1.773 -1.758 c 0.076 -0.442 0.698 -0.44 1.054 -0.756 l -0.116 0.705 0.984 0.672 0.012 0.642 1.28 1.42 -0.897 0.431 c -2.126 -1.641 -2.742 0.517 -2.102 2.682" style="fill:#791918;stroke:none"/>
</svg>
